packages/tokens/icons/arrowCircle2/size32Px.svg

<svg viewBox="0 0 32 32" fill="none" xmlns="http://www.w3.org/2000/svg" width="1em" height="1em"><path d="M29 18C29 17.7239 28.7761 17.5 28.5 17.5C28.2239 17.5 28 17.7239 28 18H29ZM26.5 7C26.7761 7 27 6.77614 27 6.5C27 6.22385 26.7761 6 26.5 6V7ZM23.8535 2.14654C23.6583 1.95128 23.3417 1.95128 23.1464 2.14654C22.9512 2.3418 22.9512 2.65838 23.1464 2.85364L23.8535 2.14654ZM27.5 6.50009L27.8535 6.85365C28.0488 6.65838 28.0488 6.3418 27.8535 6.14654L27.5 6.50009ZM23.1464 10.1465C22.9512 10.3418 22.9512 10.6584 23.1464 10.8536C23.3417 11.0489 23.6583 11.0489 23.8535 10.8536L23.1464 10.1465ZM28 18C28 24.0751 23.0751 29 17 29V30C23.6274 30 29 24.6274 29 18H28ZM17 29C10.9249 29 6 24.0751 6 18H5C5 24.6274 10.3726 30 17 30V29ZM6 18C6 11.9249 10.9249 7 17 7V6C10.3726 6 5 11.3726 5 18H6ZM17 7L26.5 7V6L17 6V7ZM23.1464 2.85364L27.1464 6.85365L27.8535 6.14654L23.8535 2.14654L23.1464 2.85364ZM27.1464 6.14654L23.1464 10.1465L23.8535 10.8536L27.8535 6.85365L27.1464 6.14654Z" fill="currentColor"/></svg>

<svg xmlns="http://www.w3.org/2000/svg" fill="none" viewBox="0 0 32 32" width="1em" height="1em"><path fill="currentColor" d="M29 18a.5.5 0 0 0-1 0h1ZM26.5 7a.5.5 0 0 0 0-1v1Zm-2.646-4.853a.5.5 0 0 0-.708.707l.707-.707ZM27.5 6.5l.354.354a.5.5 0 0 0 0-.707L27.5 6.5Zm-4.354 3.646a.5.5 0 0 0 .707.708l-.707-.707ZM28 18c0 6.075-4.925 11-11 11v1c6.627 0 12-5.373 12-12h-1ZM17 29c-6.075 0-11-4.925-11-11H5c0 6.627 5.373 12 12 12v-1ZM6 18c0-6.075 4.925-11 11-11V6C10.373 6 5 11.373 5 18h1ZM17 7h9.5V6H17v1Zm6.146-4.146 4 4 .707-.707-4-4-.707.707Zm4 3.293-4 4 .707.707 4-4-.707-.707Z"/></svg>
